X:1
T:Title
%%score { ( 1 5 6 ) | ( 2 3 4 ) }
L:1/8
M:4/4
K:C
V:1 treble nm="Grand Piano"
V:5 treble 
V:6 treble 
V:2 bass 
V:3 bass 
V:4 bass 
V:1
 z4 z2[Q:1/4=112] G2 | [Ec]3 [FA] [DB]2 [B,G]2 | [Ec]3 [FA] [DB]2 [B,G]2 | %3
 [CEc]2 F-[FB] [EGc]2 f2 | d6 z2 | [Ec]3 [FA] [DB]2 [B,G]2 | [Ec]3 [FA] [DB]2 [EG]2 | A2 EF G2 CD | %8
 E2 FD E2 CD | E6 z2 |[M:9/8] E8- E |[M:1/4] E2 |[M:4/4] A3 B c2 d2 | B3 c A2 [E^GB]2 | %14
 c2 AB c2 f2 | [Ge]6 e2 | d2 ed cd .[EAe]2 | z4 z2 .A2 | z4 B4 | A6 z2 | %20
 [B,DG]2 .[G,CE]2 [B,DG]2 .[A,FA]2 | [CEG]2 .[G,CE]2 [B,DG]2 .[DA]2 | [Gc]2 z2 z4 | e6 z2 | %24
 B2 c2 G2 A2 | z2 z F [B,DG]2 [FA]B | [Ec]2 de c2 [FA][DB] | [EG]FGA G2 [FA]B | %28
 [Ec]A[EG]A [EG]2 [A,C]D | [CE]DEF E2 [Ec]2 | A2 E2 G2 DE | z2 DE C2 z B, | E2 FD E2 z B, | %33
 E2 FD E2 [A,C]D | %34
 E2 CD E2 C2[Q:1/4=110][Q:1/4=109][Q:1/4=107][Q:1/4=105][Q:1/4=103][Q:1/4=102][Q:1/4=100][Q:1/4=98][Q:1/4=96][Q:1/4=95][Q:1/4=93][Q:1/4=91][Q:1/4=89][Q:1/4=88][Q:1/4=86] | %35
[M:3/4] E6 |] %36
V:2
 z4 z2 G,2 | z2 C2 z4 | z2 C2 z4 | C,2 z D C,2[K:treble] [A,CF]2 | [B,G]2 A,C B,2[K:bass] G,2 | %5
 G,2 C2 z4 | G,2 C2 z4 | [F,CF]2 [A,C]2 [E,G,C]2 [F,A,]2 | G,2 z2 z4 | z2 [A,,A,]2 [E,^G,]2 A,2 | %10
[M:9/8] [E,^G,B,]8- [E,G,B,] |[M:1/4] E,2 |[M:4/4] A,3 B,[K:treble] C2 D2 | B,3 C A,2 E,2 | %14
 [A,EA]2 [CE]2 [A,CE]2 [G,B,G]2 | [C,C]6[K:treble] [CG]2 | [G,B,G]2[K:bass] E,2 [A,EA]2 z G | %17
 z G z D E,2 ^F,^G, | A,4 E4[K:treble] | z2 DB, C2 A,,2 | B,,2 z A, G,,2 z B, | %21
 C,2 z A, G,,2 z[K:treble] B | E,2 A,2 [G,B,]2 z F | C2[K:treble] DF E2 [CG]2 | %24
 .[G,EG]2[K:bass] .[A,E]2 .[E,CE]2 .[F,CE]2 | [A,C]2 A,A, G,2 z D | %26
 z2[K:treble] FG E2[K:bass] [C,G,]2 | z[K:treble] DEF E2 z D | %28
 G,-[G,F][K:treble] z F C2[K:bass] z B, | z B,CD C2 [C,G,]2 | [F,C]2 [A,C]2 [E,G,C]2 [G,B,]2 | %31
 E,2 F,G, E,2 .[F,A,]2 | G,2 A,F, G,2 .[F,A,]2 | G,2 A,F, G,2 z B, | %34
 [C,G,C]2 [F,A,]2 [C,G,C]2 [F,A,]2 |[M:3/4] [C,G,C]6 |] %36
V:3
 x8 | G,2 z C, C,2 C,2 | G,2 z C, C,2 C,2 | z2 F,2 z4[K:treble] | G,6[K:bass] z2 | C,3 C, C,2 C,2 | %6
 C,3 C, C,2 C,2 | x8 | [C,C]2- [C,-A,C-][C,F,C-] [C,G,C]2 z2 | x8 |[M:9/8] x9 |[M:1/4] x2 | %12
[M:4/4] x4[K:treble] x4 | x8 | x8 | x6[K:treble] x2 | z4[K:bass] z2 C,2 | D,2 A,,2 z4 | %18
 E2 C,2 [E,A,]2 z[K:treble] c | A,,6 z2 | z2 C,2 z2 F,,2 | z2 C,2 z2 F,2[K:treble] | z4 z2 B,,2 | %23
 C,6[K:treble] z2 | x2[K:bass] x6 | z4 z2 G,2 | [C,G,]6[K:treble][K:bass] z2 | %27
 [C,G,]6[K:treble] G,2 | z2[K:treble] C2 z4[K:bass] | C,6 z2 | x8 | C,6 z2 | [C,C]6 z2 | %33
 [C,C]6 F,2 | x8 |[M:3/4] x6 |] %36
V:4
 x8 | C,4 z4 | C,4 z4 | x6[K:treble] x2 | x6[K:bass] x2 | x8 | x8 | x8 | x8 | x8 |[M:9/8] x9 | %11
[M:1/4] x2 |[M:4/4] x4[K:treble] x4 | x8 | x8 | x6[K:treble] x2 | x2[K:bass] x6 | x8 | %18
 z4 z2 E,2[K:treble] | x8 | x8 | x7[K:treble] x | x8 | x2[K:treble] x6 | x2[K:bass] x6 | x8 | %26
 x2[K:treble] x4[K:bass] x2 | x[K:treble] x7 | C,6[K:treble][K:bass] F,2 | x8 | x8 | x8 | x8 | x8 | %34
 x8 |[M:3/4] x6 |] %36
V:5
 x8 | x8 | x8 | z2 .[CA]2 z4 | z2 FA G2 G2 | x8 | x8 | x8 | x8 | z2 C2 B,2 CD |[M:9/8] x9 | %11
[M:1/4] x2 |[M:4/4] x8 | x8 | x8 | x8 | z2 [GB]2 z4 | .[DFA]2 .[CAc]2 [E^GB]2 E-[EB] | %18
 cB A2 z2 ^G,2 | [A,C]2 FD E2 [CEA]2 | x8 | x8 | C2- [CEA]2 [Gd]2 [DG]2 | E2 FA G2 e2 | %24
 z F z C z D z G, | E4 z4 | x8 | x8 | x8 | x8 | x8 | C4 z2 C2 | z4 z2 C2 | x8 | x8 |[M:3/4] x6 |] %36
V:6
 x8 | x8 | x8 | x8 | x8 | x8 | x8 | x8 | x8 | x8 |[M:9/8] x9 |[M:1/4] x2 |[M:4/4] x8 | x8 | x8 | %15
 x8 | x8 | x8 | x8 | x8 | x8 | x8 | x8 | x8 | x8 | z2 C2 z4 | x8 | x8 | x8 | x8 | x8 | x8 | x8 | %33
 x8 | x8 |[M:3/4] x6 |] %36

